icons/1_Primary/Tesla.svg

<svg xmlns="http://www.w3.org/2000/svg" width="1024" height="1024" fill="none">
   <g clip-path="url(#a)">
      <path fill="#FF837D" d="M512 1024c282.77 0 512-229.23 512-512S794.77 0 512 0 0 229.23 0 512s229.23 512 512 512Z"/>
      <path fill="#fff" d="m512 781 72-404.57c68.57 0 90.19 7.52 93.32 38.21 0 0 46-17.15 69.2-52C655.95 320.71 565 318.82 565 318.82l-53.08 64.65h.08l-53-64.66s-91 1.89-181.48 43.84c23.18 34.83 69.19 52 69.19 52 3.14-30.69 24.74-38.21 92.85-38.26L512 781Zm0-480.85c73.18-.56 156.94 11.32 242.69 48.69 11.46-20.63 14.41-29.74 14.41-29.74C675.36 282 587.58 269.32 512 269c-75.59.32-163.36 13-257.09 50.09 0 0 4.18 11.23 14.4 29.74C355 311.47 438.81 299.59 512 300.15Z"/>
   </g>
   <defs>
      <clipPath id="a">
         <path fill="#fff" d="M0 0h1024v1024H0z"/>
      </clipPath>
   </defs>
</svg>

<svg width="1024" height="1024" viewBox="0 0 1024 1024" fill="none" xmlns="http://www.w3.org/2000/svg">
<g clip-path="url(#clip0_2_3624)">
<path d="M512 1024C794.77 1024 1024 794.77 1024 512C1024 229.23 794.77 0 512 0C229.23 0 0 229.23 0 512C0 794.77 229.23 1024 512 1024Z" fill="#FF837D"/>
<path d="M512 781L584 376.43C652.57 376.43 674.19 383.95 677.32 414.64C677.32 414.64 723.32 397.49 746.52 362.64C655.95 320.71 565 318.82 565 318.82L511.92 383.47H512L459 318.81C459 318.81 368 320.7 277.52 362.65C300.7 397.48 346.71 414.65 346.71 414.65C349.85 383.96 371.45 376.44 439.56 376.39L512 781ZM512 300.15C585.18 299.59 668.94 311.47 754.69 348.84C766.15 328.21 769.1 319.1 769.1 319.1C675.36 282 587.58 269.32 512 269C436.41 269.32 348.64 282 254.91 319.09C254.91 319.09 259.09 330.32 269.31 348.83C355 311.47 438.81 299.59 512 300.15Z" fill="white"/>
</g>
<defs>
<clipPath id="clip0_2_3624">
<rect width="1024" height="1024" fill="white"/>
</clipPath>
</defs>
</svg>
